X:1
T:11 Etudes in the Form of Old Dances, Op. 19
T:Riguadon
T:11 Etudes in the Form of Old Dances, Op. 19
T:8. Riguadon in C major
T:Viktor Kosenko
C:Viktor Kosenko
%%score { ( 1 7 ) | ( 2 4 6 ) | ( 3 5 ) }
L:1/8
Q:1/4=140
M:4/4
K:C
V:1 treble nm="Piano" snm="Pno."
V:7 treble 
V:2 treble 
V:4 treble 
V:6 treble 
V:3 bass 
V:5 bass 
V:1
"^[Mosso]" z2 | z8 | z8 | z8 | z8 | z8 | z8 | z8 | z8 | z8 | z8 | z8 | z8 | z8 | z8 | z8 | z8 | %17
 z8 | z8 | z8 | z8 | z8 | z8 | z8 | z8 | z8 | z8 | z8 | z8 | z8 | z8 | z8 | z8 | z8 | z8 | z8 | %36
 z8 | z8 | z8 | z8 | z8 | z8 | z8 | z8 | z8 | z8 | z8 | z8 | z4 z2 |: z2 | z8 |[K:C] z8 |[K:C] z8 | %53
 z8 | z8 | z8 | z8 | z8 | z8 | z8 | z8 | z8 | z8 | z8 | z8 | z4 z2 :| z2 | z8 | z8 | z8 | z8 | z8 | %72
 z8 | z8 | z8 | z8 | z8 | z8 | z8 | z8 | z8 | z8 | z8 | z8 | z8 | z8 | z8 | z8 | z8 | z8 | z8 | %91
 z8 | z8 | z8 | z8 | z8 | z8 | z8 | z8 | z8 | z8 | z8 | z8 | z8 | z8 | z8 | z8 | %107
"^ossia" x6 ([Ee][Ff]/[Gg]/) | [Aa]2 ([Dd][Ee]/[Ff]/) [Gg]2 ([Cc][Dd]/[Ee]/) | %109
 [Ff]2 [Ff]2 [Ff]2 ([B,B][Cc]/[Dd]/) | [Ee]2 ([A,A][B,B]/[Cc]/) [Dd]2 x2 | z8 | z8 | z8 | z8 |] %115
V:2
!mf! [ce][df] |"^giocoso" [ceg]2 [ceg]2 [ceg]2 ([Bd][ce]/[df]/) | %2
!mf! [ceg]2 [ceg]2 [ceg]2 ([Ac][Bd]/[ce]/) | [df]2 ([GB][Ac]/[Bd]/) [ce]2 (dc) | %4
 (Bd) (dB G2)!>(! G2!>)! |!p! A6"_cresc." (dA) | B6 (eB) |!<(! c2 d2 [Ee]2 [^F^f]2!<)! | %8
 [GBg]2 [EGe][^FA^f] [GBg]2 [ce][d=f] |!mf! [Gceg]2 [ceg]2 [ceg]2 ([Bd][ce]/[df]/) | %10
!mf! [ceg]2 [ceg]2 [ceg]2 ([Ac][Bd]/[ce]/) | [df]2 ([GB][Ac]/[Bd]/) [ce]2 (dc) | %12
 (Bd) (dB G2)!>(! G2!>)! |!p! A6 [^GB]2 |!mf! [Cc]6 [B,B]2 | [CEc]2 [DAd]2 [CGc]2 [A,A][B,B] | %16
 [Cc]2 [Cc]2 [Cc]2 [GB][^FA] |!p! [EG][B,^F] [G,E]2 [G,E]2 (T^D2({^CD)} | %18
 .[G,E]2) [G,E]2 [G,E]2 (T^D2({^CD)} |!<(! .[G,E]2) (T^F2({EF)} .G2) (TA2({GA)}!<)! | %20
 .[B,EB]2) [EGe]2 ([Cc]2 [A,A]2) | [B,EB][B,EB] [EGe]2 [EGe]2 ([Cc][A,A]) | (B2 c2) (A2 B2) | %23
 G4!<(! (^FA) (EF)!<)! | (^D^F) (EG)!>(! [DF]2 ([B,G][A,F])!>)! | %25
!p! ([A,^F][G,E]) [G,E]2 [G,E]2 (T^D2({^CD)} | .[G,E]2) [G,E]2 [G,E]2!<(! ([DB][CA]) | %27
 ([CA][B,G])!<)! [B,G]2 [B,G]2 (T^F2({EF)} | .[B,G]2) (TA2({GA)} .B2) (Tc2({Bc)} | %29
 .[DGd]2) [GBg]2 ([Ee]2 [Cc]2) | [DGd][DGd] [GBg]2 [GBg]2 ([Ee][Cc]) | %31
!<(! [Dd][Ee][Ff][Ee] [Ff][Gg][Aa][^G^g]!<)! |!<(! [Aa][^G^g][Aa][^Gg]!<)! [Aa] [=GBd][Gce][Gdf] | %33
!f! [Geg]2 [Geg]2 [Geg]2 ([Bd][ce]/[df]/) | [Geg]2 [Geg]2 [Geg]2 ([Ac][Bd]/[ce]/) | %35
 [Fdf]2 ([GB][Ac]/[Bd]/) [Ece]2 ([Dd][Cc]) | (Bd) (dB G2) G2 |!f! A6 [^GB]2 | [Cc]6 [B,B]2 | %39
 [CEc]2 [DAd]2 [CGc]2 [A,A][B,B] | [Cc]2 [Cc]2 [Cc]2!p! (G,[F,B,] | %41
"_espres." [E,C]E- [G,CEG]2!<(! [G,CG]2 [G,A,^CA]2!<)! | [F,A,DF]6) ([E,A,^CE]2 | %43
 [DF][^CE] [DF]2 [DF]2 [DG]2 | [G,CE]2 [B,D][A,C] [B,D]2)!p! (G,[F,B,] | %45
 [E,C]E- [G,CEG]2!<(! [G,CG]2 [DFB]2!<)! | [CEc]6) (BA) | (BA G2) (AE ^F2) |!>(! (^FG G4)!>)! |: %49
!p! (G,2 | G6 G2) |[K:C] (_A2 _e2 c2 A2) |[K:C]"_cresc." (G2 G[B,B]) ([Cc]2 G[Cc]) | %53
 ([Dd]2 G[Dd])!>(! ([Dd][_E_e] [Cc]2)!>)! |!p! c8 | (_d2 _a2 f2 d2) | %56
"_cresc." (c2 c[Ee]) ([Ff]2 c[Ff]) | ([^F^f]2 c[Ff]) ([Gg]2 G[=F,B,]) | %58
!f! ([E,G,C]E- [G,CEG]2 [G,DEG]2 [G,A,^CEA]2 | [F,A,DF]6) ([E,A,^CE]2 | %60
 [DF][^CE] [DF]2 [DF]2 [DG]2 | [G,CE]2 [B,D][A,C] [B,D]2) (G,[F,B,] | %62
!f! [_E,C]_E [G,CEG]2 [G,CG]2 [G,_D_B]2 | [_A,C_A]6)"_dim." ([B,G][A,F]) | %64
 ([G,E][F,D] [G,E]2) ([F,CD]2 [E,C][D,B,] |!p! [E,C]6) :| [ce][df] | %67
!mf! [ceg]2 [ceg]2 [ceg]2 ([Bd][ce]/[df]/) |!mf! [ceg]2 [ceg]2 [ceg]2 ([Ac][Bd]/[ce]/) | %69
 [df]2 ([GB][Ac]/[Bd]/) [ce]2 (dc) | (Bd) (dB G2)!>(! G2!>)! |!p! A6"_cresc." (dA) | B6 (eB) | %73
!<(! c2 d2 [Ee]2 [^F^f]2!<)! | [GBg]2 [EGe][^FA^f] [GBg]2 [ce][d=f] | %75
!mf! [Gceg]2 [ceg]2 [ceg]2 ([Bd][ce]/[df]/) |!mf! [ceg]2 [ceg]2 [ceg]2 ([Ac][Bd]/[ce]/) | %77
 [df]2 ([GB][Ac]/[Bd]/) [ce]2 (dc) | (Bd) (dB G2)!>(! G2!>)! |!p! A6 [^GB]2 |!mf! [Cc]6 [B,B]2 | %81
 [CEc]2 [DAd]2 [CGc]2 [A,A][B,B] | [Cc]2 [Cc]2 [Cc]2 [GB][^FA] | %83
 [EG][B,^F] [G,E]2 [G,E]2 (T^D2({^CD)} | .[G,E]2) [G,E]2 [G,E]2 (T^D2({^CD)} | %85
!<(! .[G,E]2) (T^F2({EF)} .G2) (TA2({GA)}!<)! | .[B,EB]2) [EGe]2 ([Cc]2 [A,A]2) | %87
 [B,EB][B,EB] [EGe]2 [EGe]2 ([Cc][A,A]) | (B2 c2) (A2 B2) | G4!<(! (^FA) (EF)!<)! | %90
 (^D^F) (EG)!>(! [DF]2 ([B,G][A,F])!>)! |!p! ([A,^F][G,E]) [G,E]2 [G,E]2 (T^D2({^CD)} | %92
 .[G,E]2) [G,E]2 [G,E]2!<(! ([DB][CA]) | ([CA][B,G])!<)! [B,G]2 [B,G]2 (T^F2({EF)} | %94
 .[B,G]2)!<(! (TA2({GA)} .B2) (Tc2({Bc)}!<)! | .[DGd]2) [GBg]2 ([Ee]2 [Cc]2) | %96
 [DGd][DGd] [GBg]2 [GBg]2 ([Ee][Cc]) |!<(! [Dd][Ee][Ff][Ee] [Ff][Gg][Aa][^G^g]!<)! | %98
!<(! [Aa][^G^g][Aa][^G!courtesy!^g] [Aa] [=GBd]!<)![Gce][Gdf] | %99
!f! [Geg]2 [Geg]2 [Geg]2 ([Bd][ce]/[df]/) | [Geg]2 [Geg]2 [Geg]2 ([Ac][Bd]/[ce]/) | %101
 [Fdf]2 ([GB][Ac]/[Bd]/) [Ece]2 ([Dd][Cc]) | (Bd) (dB G2) G2 |!f! A6 [^GB]2 | [Cc]6 [B,B]2 | %105
 [CEc]2 [DAd]2 [CGc]2 [A,A][B,B] | [Cc]2 [Cc]2 [Cc]2!<(! [Aa][Bb]!<)! | %107
!ff! [cc']2 [cc']2 [cc']2 (ef/g/) | a2 (de/f/) g2 (cd/e/) | [Ff]2 [Ff]2 [Ff]2 (Bc/d/) | %110
 e2 (AB/c/) d2 !tenuto!A!tenuto!B | %111
!ff! !tenuto![Cc]2 !tenuto![Cc]2 !tenuto![Cc]2 !tenuto![A,A]!tenuto![B,B] | %112
 !tenuto![Cc]2 !tenuto![Cc]2 !tenuto![Cc]2 !tenuto![A,A]!tenuto![B,B] | %113
 !tenuto![CEc]2 !tenuto![DAd]2 !tenuto![CGc]2 !tenuto![A,A]!tenuto![B,B] | %114
 !tenuto![Cc]2 !tenuto![Cc]2!ff! !tenuto![Cc]2 z2 |] %115
V:3
 z2 | [C,G,E]!p! (.B.A.G.F.E) ([FG]G,- | [C,G,E]) (.B.A.G.F.E) (GE |D[C,G,]) (FDC[C,-A,]) (B,C) | %4
 (DB,) (B,D) (B,G, D,2) | (F,2 A,2 C2 ^F,2) | (G,2 B,2 D2 ^G,2) | (A,2 B,2 C2) [A,C]2 | %8
 [D,B,]G,, [D,A,C]2 [G,,D,B,]2 z2 | !tenuto![C,,G,,E,]!p! (.B.A.G.F.E) ([FG]G,- | %10
 [C,G,E])!p! (.B.A.G.F.E) (GE |D[C,G,]) (FDC[C,-A,]) (B,C) | (DB,) (B,D) (B,G, D,2) | %13
 (F,2 A,2 F,2) [B,,,E,,B,,]2 | ([A,,,E,,A,,]2 E,2 A,2) [E,,B,,E,]2 | %15
 [A,,E,A,]2 [F,,D,A,]2 [G,,E,G,]2 [G,,,G,,]2 | ([C,,,C,,]F,G,A, G,2) z2 | %17
 [E,,,E,,]2 [G,,,G,,]2 [B,,,B,,]2 ([B,,,,B,,,]2 | %18
 .[E,,,E,,]2) [G,,,G,,]2 [B,,,B,,]2 ([B,,,,B,,,]2 | %19
 .[E,,,E,,]2) ([B,,,B,,]2 .[E,,E,]2) ([^F,,^F,]2 | .[G,,G,]2) [C,C]2 [A,,A,]2 [^F,,^F,]2 | %21
 [G,,G,][G,,G,] [C,C]2 [C,C]2 ([A,,A,][^F,,^F,]) | ([G,,G,]2 [E,,E,]2) ([^F,,^F,]2 [D,,D,]2) | %23
 [E,,E,]2 [G,,,G,,]2 [A,,,A,,]2 [^A,,,^A,,]2 | %24
 [B,,,B,,]2 [^F,,,^F,,]2 [B,,,,B,,,]2 ([^C,,,^C,,][^D,,,^D,,]) | %25
 [E,,,E,,]2 [G,,,G,,]2 [B,,,B,,]2 ([B,,,,B,,,]2 | .[E,,,E,,]2) [G,,,G,,]2 [B,,,B,,]2 [D,,,D,,]2 | %27
 [G,,,G,,]2 [B,,,B,,]2 [D,,D,]2 ([D,,,D,,]2 | .[G,,,G,,]2) ([D,,D,]2 .[G,,G,]2) ([A,,A,]2 | %29
 .[B,,B,]2) [E,E]2 ([C,C]2 [A,,A,]2) | [B,,B,][B,,B,] [E,E]2 [E,E]2 ([C,C][A,,A,]) | %31
 [B,,B,][C,C][D,D][^C,^C] [D,D][E,E][F,F][E,E] | [F,F][E,E][F,F][E,E] [F,F] [F,F][E,E][D,D] | %33
 [C,C][B,,B,][A,,A,][G,,G,][F,,F,][E,,E,] [G,,G,][G,,,G,,] | %34
 [C,,C,][B,,,B,,][A,,,A,,][G,,,G,,][E,,,E,,][C,,,C,,] [G,G][E,E] | %35
[D,D][C,,G,,] [F,F][D,D][C,C][C,,-G,,] (B,,C,) | (D,B,,) (B,,D,) (G,D, G,,2) | %37
 [F,,F,]2 [A,,A,]2 C,2 [B,,,E,,B,,]2 | [A,,,E,,A,,]2 E,2 A,2 [E,,B,,E,]2 | %39
 [A,,E,A,]2 [F,,D,A,]2 [G,,E,G,]2 [G,,,G,,]2 | ([C,,,C,,]F,G,A, G,2) z2 | %41
 ([C,,C,]4 [E,,E,]2 [A,,,A,,]2 | [D,,D,]6) ([A,,,A,,]2 | [D,,D,]4 [=C,,=C,]2 [B,,,B,,]2 | %44
 [C,,C,]2 E,,2 G,,2) (G,,,2 | [C,,C,]4 [E,,E,]2 [^G,,^G,]2 | ([A,,E,])A,B,C E2) [C,A,]2 | %47
 ([B,,G,]2 D,D,,) (G,2 D,D,,) | ([G,,D,]3 D,, G,,,2) |: z2 | [B,,,B,,]8 | %51
[K:C] ([C,,C,]2 [C,C]2 [_A,,_A,]2 [_E,,_E,]2) |[K:C] ([D,,D,]2 [G,,G,]2) ([_E,,_E,]2 [G,,G,]2) | %53
 ([B,,,B,,]2 [G,,G,]2) ([C,,C,]2 [_E,,_E,]2) | [!courtesy!=E,,!courtesy!=E,]8 | %55
 ([F,,F,]2 [F,F]2 [_D,_D]2 [_A,,_A,]2) | ([G,,G,]2 [C,C]2) ([_A,,_A,]2 [_E,_E]2) | %57
 ([_A,,_A,]2 [D,D]2) ([G,,G,]2 [G,,,G,,]2) | [C,,,C,,]4 ([_B,,,_B,,]2 [A,,,A,,]2) | %59
 ([D,,D,][F,,F,] [A,,A,]2) ([A,,A,]2 [A,,,A,,]2) | ([D,,D,]4 [=C,,=C,]2 [B,,,B,,]2 | %61
 [C,,C,]2 E,,2 G,,2) (G,,,2 | [C,,,C,,]4) ([_E,,_E,]2 [_E,,,E,,]2) | %63
 ([_A,,,_A,,][C,,C,] [_E,,_E,]2 [=E,,=E,]2 [F,,F,]2) | ([G,,E,]2 G,,,2) G,2 G,,2- | G,,6 :| z2 | %67
 [C,G,E]!p! (.B.A.G.F.E) ([FG]G,- | [C,G,E])!p! (.B.A.G.F.E) (GE |D[C,G,]) (FDC[C,-A,]) (B,C) | %70
 (DB,) (B,D) (B,G, D,2) | (F,2 A,2 C2 ^F,2) | (G,2 B,2 D2 ^G,2) | (A,2 B,2 C2) [A,C]2 | %74
 [D,B,]G,, [D,A,C]2 [G,,D,B,]2 z2 | [C,,G,,E,]!p! (.B.A.G.F.E) ([FG]G,- | %76
 [C,G,E])!p! (.B.A.G.F.E) (GE |D[C,G,]) (FDC[C,-A,]) (B,C) | (DB,) (B,D) (B,G, D,2) | %79
 (F,2 A,2 F,2) [B,,,E,,B,,]2 | ([A,,,E,,A,,]2 E,2 A,2) [E,,B,,E,]2 | %81
 [A,,E,A,]2 [F,,D,A,]2 [G,,E,G,]2 [G,,,G,,]2 | ([C,,,C,,]F,G,A, G,2) z2 | %83
 [E,,,E,,]2 [G,,,G,,]2 [B,,,B,,]2 ([B,,,,B,,,]2 | %84
 .[E,,,E,,]2) [G,,,G,,]2 [B,,,B,,]2 ([B,,,,B,,,]2 | %85
 .[E,,,E,,]2) ([B,,,B,,]2 [E,,E,]2) ([^F,,^F,]2 | .[G,,G,]2) [C,C]2 [A,,A,]2 [^F,,^F,]2 | %87
 [G,,G,][G,,G,] [C,C]2 [C,C]2 ([A,,A,][^F,,^F,]) | ([G,,G,]2 [E,,E,]2) ([^F,,^F,]2 [D,,D,]2) | %89
 [E,,E,]2 [G,,,G,,]2 [A,,,A,,]2 [^A,,,^A,,]2 | %90
 [B,,,B,,]2 [^F,,,^F,,]2 [B,,,,B,,,]2 ([^C,,,^C,,][^D,,,^D,,]) | %91
 [E,,,E,,]2 [G,,,G,,]2 [B,,,B,,]2 ([B,,,,B,,,]2 | .[E,,,E,,]2) [G,,,G,,]2 [B,,,B,,]2 [D,,,D,,]2 | %93
 [G,,,G,,]2 [B,,,B,,]2 [D,,D,]2 ([D,,,D,,]2 | .[G,,,G,,]2) ([D,,D,]2 .[G,,G,]2) ([A,,A,]2 | %95
 .[B,,B,]2) [E,E]2 ([C,C]2 [A,,A,]2) | [B,,B,][B,,B,] [E,E]2 [E,E]2 ([C,C][A,,A,]) | %97
 [B,,B,][C,C][D,D][^C,^C] [D,D][E,E][F,F][E,E] | [F,F][E,E][F,F][E,E] [F,F] [F,F][E,E][D,D] | %99
 [C,C][B,,B,][A,,A,][G,,G,][F,,F,][E,,E,] [G,,G,][G,,,G,,] | %100
 [C,,C,][B,,,B,,][A,,,A,,][G,,,G,,][E,,,E,,][C,,,C,,] [G,G][E,E] | %101
[D,D][C,,G,,] [F,F][D,D][C,C][C,,-G,,] (B,,C,) | (D,B,,) (B,,D,) (G,D, G,,2) | %103
 [F,,F,]2 [A,,A,]2 C,2 [B,,,E,,B,,]2 | [A,,,E,,A,,]2 E,2 A,2 [E,,B,,E,]2 | %105
 [A,,E,A,]2 [F,,D,A,]2 [G,,E,G,]2 [G,,,G,,]2 | ([C,,,C,,]F,G,A, G,2) [G,CEF]2 | %107
 ([C,,C,][FA][EG][DF] [CE]G,) (C[C,,C,]) | ([CF]F,-) ([F,B,]G,,) ([B,E]E,) (A,A,,) | %109
 ([C,,,C,,][CE][B,D][A,C] [G,B,])D, (G,[C,,C,]) | (B,E,) (F,A,,) (A,F,,) ([D,F,G,]G,,) | %111
 ([C,,,C,,]F,G,A, G,2) G,2 | ([C,,,C,,]F,G,A,) G,2 F,2 | %113
 !arpeggio![A,,,E,,A,,E,A,]2 [F,,D,A,]2 [G,,C,E,G,]2 [G,,,G,,]2 | %114
 ([C,,,C,,]F,G,A,){/[G,,C,E,G,]-} [G,,C,E,G,]2 z2 |] %115
V:4
 x2 | x8 | x8 | x6 G2 | G6 [B,D]2 | (GF) (FE) (ED-) D2 | (AG) (GF) (FE-) E2 | (BAGF) (dc) (BA) | %8
 x8 | x8 | x8 | x6 G2 | G6 [B,D]2 | (GF) (FC)!<(! (A,C) (ED)!<)! | (BA) (AE) (CE) ([EA]^G) | %15
 (BA) (GF) (FE) (CD) | (E[FA][EG][DF] E2) x2 | x6 A,2 | x6 A,2 | x2 [B,D]2 [B,E]2 [B,E]2 | x4 E4 | %21
 x6 E2 | (EB,[GB]C) (DA,[^FA]B,) | [G,E]4 [^F,C]2 [G,^C]2 | ^F,4 F,2 x2 | x6 A,2 | x8 | x6 C2 | %28
 x2 [D^F]2 [DG]2 [DG]2 | x4 G4 | x6 G2 | G4 G4 | G2 =G2 =G x3 | x8 | x8 | x6 G2 | %36
 [DG]2 [DG]2 B,2 [B,D]2 | (GF) (FC) (A,C) (ED) | (BA) (AE) (CE) ([EA]^G) | (BA) (GF) (FE) (CD) | %40
 (E[FA][EG][DF] E2) x2 | x8 | x8 | F,4 _A,2 G,2 | x8 | x8 | x6 [C_E]2 | [B,D]4 [A,C]4 | %48
 ([A,C]2 [G,B,]4) |: x2 | (F_EDG, DEFG,) |[K:C] (_A_A,) (_e_E) (cC) (AA,) | %52
[K:C] ([B,F]G,) x2 (GG,) x2 | ([FG]G,) x2 G4 | (_B_AGC GABC) | (_d_D) (_a_A) (fF) (dD) | %56
 ([E_B]C) x2 (cC) x2 | (cC) x2 (BG,) x2 | x8 | x8 | F,4 _A,2 G,2 | x2 G,2 G,2 x2 | x8 | x6 _C2 | %64
 C4 x4 | x6 :| x2 | x8 | x8 | x6 G2 | G6 [B,D]2 | (GF) (FE) (ED-) D2 | (AG) (GF) (FE-) E2 | %73
 (BAGF) (dc) (BA) | x8 | x8 | x8 | x6 G2 | G6 [B,D]2 | (GF) (FC) (A,C) (ED) | %80
 (BA) (AE) (CE) ([EA]^G) | (BA) (GF) (FE) (CD) | (E[FA][EG][DF] E2) x2 | x6 A,2 | x6 A,2 | %85
 x2 [B,D]2 [B,E]2 [B,E]2 | x4 E4 | x6 E2 | (EB,[GB]C) (DA,[^FA]B,) | [G,E]4 [^F,C]2 [G,^C]2 | %90
 ^F,4 F,2 z2 | x6 A,2 | x8 | x6 C2 | x2 [D^F]2 [DG]2 [DG]2 | x4 G4 | x6 G2 | G4 G4 | G2 =G2 =G x3 | %99
 x8 | x8 | x6 G2 | [DG]2 [DG]2 B,2 [B,D]2 | (GF) (FC) (A,C) (ED) | (BA) (AE) (CE) ([EA]^G) | %105
 (BA) (GF) (FE) (CD) | (E[FA][EG][DF] E2) cd | (e[fa][eg][df] e2) [EG]2 | [Ac]2 [DF]2 [GB]2 [CE]2 | %109
 (A[ce][Bd][Ac] [GB]2) [B,D]2 | [EG]2 [A,C]2 [DF]2 [A,C][B,D] | (E[FA][EG][DF] E2) CD | %112
 (E[FA][EG][DF] E2) CD | (BA) (GF) (FE) (CD) | (E[FA][EG][DF]) E2 x2 |] %115
V:5
 x2 | x8 | x8 | x6 C,2 | z C,- C,4- C,C,,- | C,,6- C,,C,,- | C,,6- C,,C,- | C,6 D,2 | x8 | x8 | %10
 x8 | x6 C,2 | z C,- C,4- C,C,,- | C,,6 x2 | x8 | x8 | x C,- C,4 x2 | x8 | x8 | x8 | x8 | x8 | x8 | %23
 x8 | x8 | x8 | x8 | x8 | x8 | x8 | x8 | x8 | x8 | x8 | x8 | x6 C,,2 | z C,,- C,,4- C,,[C,,,C,,] | %37
 x8 | x8 | x8 | x C,- C,4 x2 | x8 | x8 | x8 | x8 | x8 | x8 | x8 | x6 |: x2 | x8 |[K:C] x8 | %52
[K:C] x8 | x8 | x8 | x8 | x8 | x8 | x8 | x8 | x8 | x8 | x8 | x8 | x8 | z2 (C,,G,,, C,,,2) :| x2 | %67
 x8 | x8 | x6 C,2 | z C,- C,4- C,C,,- | C,,6- C,,C,,- | C,,6- C,,C,- | C,6 D,2 | x8 | x8 | x8 | %77
 x6 C,2 | z C,- C,4- C,C,,- | C,,6 x2 | x8 | x8 | x C,- C,4 x2 | x8 | x8 | x8 | x8 | x8 | x8 | x8 | %90
 x8 | x8 | x8 | x8 | x8 | x8 | x8 | x8 | x8 | x8 | x8 | x6 C,,2 | z C,,- C,,4- C,,[C,,,C,,] | x8 | %104
 x8 | x8 | x C,- C,4 x2 | x8 | x8 | x8 | x8 | x C,- C,3 (G,,[D,F,]G,,) | x C,- C,3 (E,,D,E,,) | %113
 x8 | x C,- C,2 [C,,,C,,]2 x2 |] %115
V:6
 x2 | x8 | x8 | x8 | x8 | x8 | x8 | x8 | x8 | x8 | x8 | x8 | x8 | x8 | x8 | x8 | x8 | x8 | x8 | %19
 x8 | x8 | x8 | x8 | x8 | x8 | x8 | x8 | x8 | x8 | x8 | x8 | x8 | x8 | x8 | x8 | x8 | x8 | x8 | %38
 x8 | x8 | x8 | x8 | x8 | x8 | x8 | x8 | x8 | x8 | x6 |: x2 | x8 |[K:C] [_EG]4 [EG]4 |[K:C] x8 | %53
 x8 | x8 | [_Ac]4 [Ac]4 | x8 | x8 | x8 | x8 | x8 | x8 | x8 | x8 | x8 | x6 :| x2 | x8 | x8 | x8 | %70
 x8 | x8 | x8 | x8 | x8 | x8 | x8 | x8 | x8 | x8 | x8 | x8 | x8 | x8 | x8 | x8 | x8 | x8 | x8 | %89
 x8 | x8 | x8 | x8 | x8 | x8 | x8 | x8 | x8 | x8 | x8 | x8 | x8 | x8 | x8 | x8 | x8 | x8 | x8 | %108
 x8 | x8 | x8 | x8 | x8 | x8 | x8 |] %115
V:7
 x2 | x8 | x8 | x8 | x8 | x8 | x8 | x8 | x8 | x8 | x8 | x8 | x8 | x8 | x8 | x8 | x8 | x8 | x8 | %19
 x8 | x8 | x8 | x8 | x8 | x8 | x8 | x8 | x8 | x8 | x8 | x8 | x8 | x8 | x8 | x8 | x8 | x8 | x8 | %38
 x8 | x8 | x8 | x8 | x8 | x8 | x8 | x8 | x8 | x8 | x6 |: x2 | x8 |[K:C] x8 |[K:C] x8 | x8 | x8 | %55
 x8 | x8 | x8 | x8 | x8 | x8 | x8 | x8 | x8 | x8 | x6 :| x2 | x8 | x8 | x8 | x8 | x8 | x8 | x8 | %74
 x8 | x8 | x8 | x8 | x8 | x8 | x8 | x8 | x8 | x8 | x8 | x8 | x8 | x8 | x8 | x8 | x8 | x8 | x8 | %93
 x8 | x8 | x8 | x8 | x8 | x8 | x8 | x8 | x8 | x8 | x8 | x8 | x8 | x8 | x6 (GA/B/) | %108
 c2 (FG/A/) B2 (EF/G/) | (A[ce][Bd][Ac] [GB]2) (DE/F/) | G2 (CD/E/) F2 x2 | x8 | x8 | x8 | x8 |] %115

